X: 78
T: Langstrom's Pony
R: jig
Z: 2012 John Chambers <jc@trillian.mit.edu>
B: "100 Essential Irish Session Tunes" 1995 Dave Mallinson, ed.
M: 6/8
L: 1/8
K: A
|:\
"A"fed cAA | EAA cAA | fed cAA | "G"B=GB dcB |\
"A"fed cAA | EAA cAe | "D"faf =gfe | "G"dB=G Bcd :|
|:\
"A"cee "D"dff | "A"cee ecA | cee "D"dff | "G"dB=G Bcd |\
"A"cee "D"dff | "A"cee ef=g | "D"faf =gfe | "G"dB=G Bcd :|
|:\
"A"Ace a3 | ecA ecA | "G"=GBd =g3 | "G"dB=G Bcd |\
"A"eaf "G"=gfe | "D"fed "A"ecA | "D"faf =gfe | "G"dB=G Bcd :|
|:\
"A"AEA A2e | cAc ecB | AEA AB=c | "G"B=GB dcB |\
"A"AEA A2e | cAc ef=g | "D"faf =gfe | "G"dB=G Bcd :|
